X:055 
T:Empire State Reel* #1, The 
B:CRE5.177i (gan ainm)
F:file ID: cre.5/055emp_s1
N:This tune (nameless, in two settings) came from members of the Mulvihill
family from New York.
M:4/4
Q:180
R:reel
K:F
cFFA c2Ac|dAcA GFDA|cFFA cFAc|dAcA G2FA|
cFFA cFAc|dAcA GFDA|cFAF cFAc|dAcA GBAG||
F2Ac fgaf|d2cA GFDC|F2Ac fgaf|d2cg f3d|
fdcg fgaf|d2cA GFDC|F2Ac fgfe|dcde f4|]

%%%

